X:100
T:Cainc y Datgeiniad
M:2/2
L:1/4
S:Colin Hume's website,  colinhume.com  - chords can also be printed below the stave.
Q:1/2=112
C:Traditional Welsh?
N:For the dance "Delight of the Men of Llay" by Pat Shaw
K:D
P:A
A/F/ |: "D"DF/A/ dd | "A7"cA Bc | "D"dd/f/ ad | "A7"cc/e/ ag |\
"D"fa "Bm"dc | "G"BB/c/ dB | "D"Ad "A7"c/d/e/c/ |1 "D"d2A/G/F/E/ :|2 "D"d3 d/c/ |
P:B
"Bm"BB/c/ dc/B/ | "F#7"cc/d/ ed/c/ | "Bm"BB/^A/ B/c/d/e/ | "F#7"f/F/^A/c/ f/e/d/c/ |\
"Bm"BB/c/ dc/B/ | "F#7"cc/d/ ed/c/ | "Bm"dB "F#7"^Ac | "Bm"BA/B/ "A7"A/G/F/E/ |
P:A3
"D"DF/A/ dd | "A7"cA Bc | "D"dd/f/ ad | "A7"cc/e/ ag |\
"D"fa "Bm"dc | "G"BB/c/ dB | "D"Ad "A7"c/d/e/c/ | "D"d3 |]

